X: 1495
T: Andy Conroy's
R: hornpipe
M: 4/4
K: Dmajor
fe|:dBBA BAFA|dcde fefa|bc'd'b afde|fBBA B2fe|
dBBA BAFA|dcde fefa|bc'd'b afde|fdBc d2|
f/a/b/c'/|:d'c'd'b afde|fede fefa|bc'd'b afde|1 (3fga ba b2 bc':|2 fdBc d2||

